blockchains/ethereum/assets/0x8207c1FfC5B6804F6024322CcF34F29c3541Ae26/logo.svg

<svg fill="none" height="250" viewBox="0 0 250 250" width="250" xmlns="http://www.w3.org/2000/svg" xmlns:xlink="http://www.w3.org/1999/xlink"><clipPath id="a"><path d="m0 0h250v250h-250z"/></clipPath><g clip-path="url(#a)"><path d="m125 0c69.036 0 125 55.9643 125 125 0 69.036-55.964 125-125 125-69.0357 0-125-55.964-125-125 0-69.0357 55.9643-125 125-125z" fill="#1a82ff"/><path d="m170.699 176.472c-10.821 13.257-26.04 19.886-45.657 19.886-19.616 0-34.8378-6.629-45.6639-19.886-10.8286-13.264-16.2405-30.41-16.2358-51.436.0048-21.026 5.4143-38.1688 16.2286-51.4283 10.8214-13.2643 26.0431-19.8952 45.6641-19.8929 19.622.0024 34.841 6.6334 45.657 19.8929 10.822 13.2571 16.234 30.4003 16.236 51.4283.002 21.029-5.407 38.174-16.229 51.436z" fill="#fff"/><g fill="#1a82ff"><path d="m124.814 168.635c5.165 0 9.555-1.407 13.172-4.222 3.616-2.814 6.235-6.631 7.857-11.45 1.619-4.821 2.762-9.442 3.428-13.864.667-4.421.998-9.109.993-14.064 0-6.1-.369-11.56-1.107-16.379l-44.493 46.365c4.115 9.071 10.831 13.609 20.15 13.614z"/><path d="m125.257 81.4375c-5.164 0-9.555 1.4071-13.171 4.2213-3.617 2.8142-6.236 6.6308-7.857 11.4498-1.629 4.8214-2.772 9.4424-3.429 13.8644-.667 4.421-.9976 9.109-.9928 14.063 0 3.265.1047 6.346.3138 9.243l42.436-44.2131c-4.121-5.7499-9.888-8.626-17.3-8.6284z"/><path d="m66.6 169.238-5.4643-5.243 41.4353-43.193 5.465 5.243zm78.071-45.072-5.464-5.243 41.436-43.1925 5.464 5.2428z"/></g></g></svg>

<svg width="250" height="250" viewBox="0 0 250 250" fill="none" xmlns="http://www.w3.org/2000/svg">
<g clip-path="url(#clip0_30_692)">
<path d="M125 0C194.036 0 250 55.9643 250 125C250 194.036 194.036 250 125 250C55.9643 250 0 194.036 0 125C0 55.9643 55.9643 0 125 0Z" fill="#1A82FF"/>
<path d="M170.699 176.472C159.878 189.729 144.659 196.358 125.042 196.358C105.426 196.358 90.2042 189.729 79.3781 176.472C68.5495 163.208 63.1376 146.062 63.1423 125.036C63.1471 104.01 68.5566 86.8672 79.3709 73.6077C90.1923 60.3434 105.414 53.7125 125.035 53.7148C144.657 53.7172 159.876 60.3482 170.692 73.6077C181.514 86.8648 186.926 104.008 186.928 125.036C186.93 146.065 181.521 163.21 170.699 176.472Z" fill="white"/>
<path d="M124.814 168.635C129.979 168.635 134.369 167.228 137.986 164.413C141.602 161.599 144.221 157.782 145.843 152.963C147.462 148.142 148.605 143.521 149.271 139.099C149.938 134.678 150.269 129.99 150.264 125.035C150.264 118.935 149.895 113.475 149.157 108.656L104.664 155.021C108.779 164.092 115.495 168.63 124.814 168.635Z" fill="#1A82FF"/>
<path d="M125.257 81.4375C120.093 81.4375 115.702 82.8446 112.086 85.6588C108.469 88.473 105.85 92.2896 104.229 97.1086C102.6 101.93 101.457 106.551 100.8 110.973C100.133 115.394 99.8024 120.082 99.8072 125.036C99.8072 128.301 99.9119 131.382 100.121 134.279L142.557 90.0659C138.436 84.316 132.669 81.4399 125.257 81.4375Z" fill="#1A82FF"/>
<path d="M66.6 169.238L61.1357 163.995L102.571 120.802L108.036 126.045L66.6 169.238ZM144.671 124.166L139.207 118.923L180.643 75.7305L186.107 80.9733L144.671 124.166Z" fill="#1A82FF"/>
</g>
<defs>
<clipPath id="clip0_30_692">
<rect width="250" height="250" fill="white"/>
</clipPath>
</defs>
</svg>
